X: 1
T: Captain Bing
M: 2/4
L: 1/8
R: polka
K: Gmaj
|:g>f gd| BG GA/B/|c/B/A a>g | fd ef|
g>f gd |BGGA/B/|c/B/A dF | G2 G>d:|
|BG dG | BG GA/B/|c/B/A eA| cAA>c|
BG dG |BG GA/B/|c/B/A dF |G2GA:|
